X:1
T:Title
%%score ( 1 2 ) { 3 | 4 }
L:1/8
M:3/4
K:Eb
V:1 treble nm="Grand Piano, Unnamed-000"
V:2 treble 
V:3 bass nm="Choir Pad, Adoro Te, 88.88.88"
V:4 bass 
V:1
 [B,G]2 [EG]2 [DG]2 | [CG]4 [CF]2 | [B,E]4 [DF]2 | [EG]6 | [DB]2 [GB]2 [FB]2 | [EB]4 [E=A]2 | %6
w: By~Joseph~Barnby~(1838\-1896) * *||||||
 [DG]2 [G=A]2 [_GA]2 | [GB]6 | [DB]2 [Ec]2 [Fd]2 | [Ee]4 [GB]2 | G2 A2 [EB]2 | [Ec]4 [Ec]2 | %12
w: ||||||
 c2- [Fc]2 G2 | [GB]4 [FA]2 | [FA]2 [GB]2 [Ac]2 | [DF]6 | E2 E2 E2 | [_DF]4 [DF]2 | G2 z2 z2 | %19
w: |||||||
 [CA]6 | A2 G2 F2 | E4 E2 | E4 z2 | [B,E]6- | [B,E]2 z2 z2 |] %25
w: ||||||
V:2
 x6 | x6 | x6 | x6 | x6 | x6 | x6 | x6 | x6 | x6 | E4 z2 | x6 | =E2 z2 z2 | x6 | x6 | x6 | x6 | %17
 x6 | _D2- [DF]2 [DE]2 | x6 | x6 | x6 | z2 D2 [CE]2 | x6 | x6 |] %25
V:3
 B,2 B,2 B,2 | B,4 A,2 | G,4 B,2 | B,6 | B,2[K:treble] D2 D2 | D2 G,2 C2 | B,4 C2 | B,6 | %8
 A,2 A,2 A,2 | G,4 B,2 | E4 _D2 | C4 A,2 | G,4 C2 | C4 C2 | C2[K:bass] B,2 A,2 | A,6 | %16
 G,2 G,2 G,2 | B,4 B,2 | B,2 A,2 G,2 | A,6 | A,2 G,2 F,2 | E,4 E,2 | C2 B,2 A,2 | G,6- | %24
 G,2 z2 z2 |] %25
V:4
 E,2 E,2 E,2 | A,,4 A,,2 | B,,4 B,,2 | E,6 | G,2 G,2 G,2 | C,4 C,2 | D,4 D,2 | G,6 | F,2 F,2 B,,2 | %9
 E,4 E,2 | E,2 F,2 G,2 | A,4 z2 | C,2 D,2 =E,2 | F,4 F,2 | A,,4 A,,2 | B,,6 | C,2 C,2 C,2 | %17
 B,,4 B,,2 | E,4 E,2 | A,,6 | z6 | z6 | A,,4 A,,2 | E,6- | E,2 z2 z2 |] %25

